X: 32131
T: Peter Flanagan's Stoney Steps
R: reel
M: 4/4
K: Dmajor
FAAF A2FA|ABde fded|FAAF A2FA|BFAF EFD2:|
~f3e dedB|ABde faaz|~f3e dedB|AFDF ~E2D2|
~f3e dedB|ABde faaz|bfaf efdB|AFDF ~E2D2||

